src/components/icon/img/customize.svg

<svg viewBox="0 0 50 50" xmlns="http://www.w3.org/2000/svg"><path d="m9.63 22.14a7.42 7.42 0 0 1 4.44 2.62 7.71 7.71 0 0 1 0 9.93 7.44 7.44 0 0 1 -4.44 2.63v8a1.43 1.43 0 0 1 -.49 1.12 1.57 1.57 0 0 1 -1.07.44 1.38 1.38 0 0 1 -1.56-1.58v-8a7.33 7.33 0 0 1 -4.51-2.61 7.92 7.92 0 0 1 0-9.93 7.31 7.31 0 0 1 4.5-2.62v-17.33a1.38 1.38 0 0 1 1.57-1.56 1.57 1.57 0 0 1 1.07.44 1.43 1.43 0 0 1 .49 1.12zm-1.56 12.26a4.52 4.52 0 0 0 3.32-1.4 4.68 4.68 0 0 0 0-6.62 4.52 4.52 0 0 0 -3.32-1.36 4.52 4.52 0 0 0 -3.32 1.36 4.68 4.68 0 0 0 0 6.62 4.52 4.52 0 0 0 3.32 1.4zm18.75-27.84a7.44 7.44 0 0 1 4.44 2.63 7.44 7.44 0 0 1 1.81 5 7.45 7.45 0 0 1 -1.81 5 7.44 7.44 0 0 1 -4.44 2.63v23.48a1.43 1.43 0 0 1 -.49 1.12 1.57 1.57 0 0 1 -1.07.44 1.38 1.38 0 0 1 -1.57-1.56v-23.55a7.3 7.3 0 0 1 -4.49-2.63 7.61 7.61 0 0 1 -1.76-5 7.6 7.6 0 0 1 1.76-5 7.3 7.3 0 0 1 4.49-2.63v-1.68a1.38 1.38 0 0 1 1.57-1.56 1.57 1.57 0 0 1 1.07.44 1.43 1.43 0 0 1 .49 1.12zm-1.56 12.27a4.53 4.53 0 0 0 3.32-1.37 4.48 4.48 0 0 0 1.36-3.31 4.48 4.48 0 0 0 -1.36-3.3 4.71 4.71 0 0 0 -6.64 0 4.45 4.45 0 0 0 -1.37 3.3 4.45 4.45 0 0 0 1.37 3.31 4.51 4.51 0 0 0 3.32 1.37zm25 14a7.74 7.74 0 0 1 -6.26 7.6v4.87a1.46 1.46 0 0 1 -.49 1.12 1.61 1.61 0 0 1 -1.08.44 1.38 1.38 0 0 1 -1.56-1.56v-4.87a7.29 7.29 0 0 1 -4.49-2.62 7.88 7.88 0 0 1 0-9.93 7.26 7.26 0 0 1 4.49-2.63v-20.44a1.38 1.38 0 0 1 1.56-1.56 1.61 1.61 0 0 1 1.08.44 1.46 1.46 0 0 1 .49 1.12v20.44a7.42 7.42 0 0 1 4.44 2.63 7.49 7.49 0 0 1 1.82 4.96zm-7.82 4.67a4.67 4.67 0 0 0 3.32-8 4.69 4.69 0 1 0 -3.32 8z" fill="#1873b4"/></svg>

<svg id="Ebene_1" data-name="Ebene 1" xmlns="http://www.w3.org/2000/svg" viewBox="0 0 50 50"><defs><style>.cls-1{fill:#1873b4;}</style></defs><title>customize_50x50px</title><path class="cls-1" d="M9.63,22.14a7.42,7.42,0,0,1,4.44,2.62,7.71,7.71,0,0,1,0,9.93,7.44,7.44,0,0,1-4.44,2.63v8a1.43,1.43,0,0,1-.49,1.12,1.57,1.57,0,0,1-1.07.44A1.38,1.38,0,0,1,6.51,45.3v-8A7.33,7.33,0,0,1,2,34.69a7.92,7.92,0,0,1,0-9.93,7.31,7.31,0,0,1,4.5-2.62V4.81A1.38,1.38,0,0,1,8.07,3.25a1.57,1.57,0,0,1,1.07.44,1.43,1.43,0,0,1,.49,1.12ZM8.07,34.4A4.52,4.52,0,0,0,11.39,33a4.68,4.68,0,0,0,0-6.62,4.52,4.52,0,0,0-3.32-1.36,4.52,4.52,0,0,0-3.32,1.36,4.68,4.68,0,0,0,0,6.62A4.52,4.52,0,0,0,8.07,34.4ZM26.82,6.56a7.44,7.44,0,0,1,4.44,2.63,7.44,7.44,0,0,1,1.81,5,7.45,7.45,0,0,1-1.81,5,7.44,7.44,0,0,1-4.44,2.63V45.3a1.43,1.43,0,0,1-.49,1.12,1.57,1.57,0,0,1-1.07.44,1.38,1.38,0,0,1-1.57-1.56V21.75a7.3,7.3,0,0,1-4.49-2.63,7.61,7.61,0,0,1-1.76-5,7.6,7.6,0,0,1,1.76-5,7.3,7.3,0,0,1,4.49-2.63V4.81a1.38,1.38,0,0,1,1.57-1.56,1.57,1.57,0,0,1,1.07.44,1.43,1.43,0,0,1,.49,1.12ZM25.26,18.83a4.53,4.53,0,0,0,3.32-1.37,4.48,4.48,0,0,0,1.36-3.31,4.48,4.48,0,0,0-1.36-3.3,4.71,4.71,0,0,0-6.64,0,4.45,4.45,0,0,0-1.37,3.3,4.45,4.45,0,0,0,1.37,3.31A4.51,4.51,0,0,0,25.26,18.83Zm25,14A7.74,7.74,0,0,1,44,40.43V45.3a1.46,1.46,0,0,1-.49,1.12,1.61,1.61,0,0,1-1.08.44,1.38,1.38,0,0,1-1.56-1.56V40.43a7.29,7.29,0,0,1-4.49-2.62,7.88,7.88,0,0,1,0-9.93,7.26,7.26,0,0,1,4.49-2.63V4.81a1.38,1.38,0,0,1,1.56-1.56,1.61,1.61,0,0,1,1.08.44A1.46,1.46,0,0,1,44,4.81V25.25a7.42,7.42,0,0,1,4.44,2.63A7.49,7.49,0,0,1,50.26,32.84Zm-7.82,4.67a4.67,4.67,0,0,0,3.32-8,4.69,4.69,0,1,0-3.32,8Z"/></svg>
